images/basic-color-only/basic-color-only-4.svg

<svg xmlns="http://www.w3.org/2000/svg" focusable="false" aria-hidden="true" width="202" height="260" style="pointer-events: none; position: absolute; left: 0px; top: 0px; transform-origin: left top; z-index: 20;"><defs/><g><g><g><g><rect x="0" y="0" width="192" height="250" rx="0" ry="0" style="fill: #333; stroke: none;stroke-miterlimit: 10;"/></g><g transform="translate(10.00000000000000000000,10.00000000000000000000)"><g transform="translate(5.00000000000000000000,5.00000000000000000000)"><g><g transform="translate(0.00000000000000000000,30.00000000000000000000)"><g><g transform="translate(30.00000000000000000000,0.00000000000000000000)"><g transform="scale(30.00000000000000000000)"><g><path d="M 0.00000000000000006123 1.00000000000000000000 L 0.00000000000000000000 0.00000000000000000000 L 1.00000000000000000000 0.00000000000000000000 L 0.00000000000000006123 1.00000000000000000000 Z " style="fill: #000; stroke: none;stroke-miterlimit: 10;"/></g><g><path d="M -1.00000000000000000000 0.00000000000000012246 L 0.00000000000000000000 0.00000000000000000000 L 0.00000000000000006123 1.00000000000000000000 L -1.00000000000000000000 0.00000000000000012246 Z " style="fill: #000; stroke: none;stroke-miterlimit: 10;"/></g><g><path d="M -0.00000000000000018370 -1.00000000000000000000 L 0.00000000000000000000 0.00000000000000000000 L -1.00000000000000000000 0.00000000000000012246 L -0.00000000000000018370 -1.00000000000000000000 Z " style="fill: #000; stroke: none;stroke-miterlimit: 10;"/></g><g><path d="M 1.00000000000000000000 0.00000000000000000000 L 0.00000000000000000000 0.00000000000000000000 L -0.00000000000000018370 -1.00000000000000000000 L 1.00000000000000000000 0.00000000000000000000 Z " style="fill: #000; stroke: none;stroke-miterlimit: 10;"/></g><g><path d="M 0.00000000000000006123 1.00000000000000000000 L 0.00000000000000000000 0.00000000000000000000 L 1.00000000000000000000 0.00000000000000000000 L 0.00000000000000006123 1.00000000000000000000 Z " style="fill: #214068; stroke: none;stroke-miterlimit: 10;"/></g><g><path d="M -0.00000000000000018370 -1.00000000000000000000 L 0.00000000000000000000 0.00000000000000000000 L -1.00000000000000000000 0.00000000000000012246 L -0.00000000000000018370 -1.00000000000000000000 Z " style="fill: #214068; stroke: none;stroke-miterlimit: 10;"/></g><g><path d="M -1.00000000000000000000 0.00000000000000012246 L 0.00000000000000000000 0.00000000000000000000 L 0.00000000000000006123 1.00000000000000000000 L -1.00000000000000000000 0.00000000000000012246 Z " style="fill: #09294c; stroke: none;stroke-miterlimit: 10;"/></g><g><line x1="0" y1="0" x2="1" y2="0" style="fill: none; stroke: rgba(255,255,255,0.2);stroke-width: 0.01;stroke-miterlimit: 10;"/></g><g><line x1="0" y1="0" x2="6.123233995736766e-17" y2="1" style="fill: none; stroke: rgba(255,255,255,0.2);stroke-width: 0.01;stroke-miterlimit: 10;"/></g><g><line x1="0" y1="0" x2="-1" y2="1.2246467991473532e-16" style="fill: none; stroke: rgba(255,255,255,0.2);stroke-width: 0.01;stroke-miterlimit: 10;"/></g><g><line x1="0" y1="0" x2="-1.8369701987210297e-16" y2="-1" style="fill: none; stroke: rgba(255,255,255,0.2);stroke-width: 0.01;stroke-miterlimit: 10;"/></g><g><circle r="0.04" style="fill: rgba(255,255,255,0.2); stroke: rgba(255,255,255,0.2);stroke-width: 0.02;stroke-miterlimit: 10;"/></g></g></g><g transform="translate(70.50000000000000000000,0.00000000000000000000)"><path d="M 0.00000000000000003062 0.50000000000000000000 L 13.00000000000000000000 0.50000000000000000000 L 13.00000000000000000000 3.50000000000000000000 L 20.00000000000000000000 0.00000000000000000000 L 13.00000000000000000000 -3.50000000000000000000 L 13.00000000000000000000 -0.50000000000000000000 L -0.00000000000000003062 -0.50000000000000000000 L 0.00000000000000003062 0.50000000000000000000 Z " style="fill: #ccc; stroke: #ccc;stroke-miterlimit: 10;"/></g><g transform="translate(131.61803398874991444245,0.00000000000000000000)"><g transform="scale(30.00000000000000000000)"><g><path d="M 0.00000000000000006123 1.00000000000000000000 L 0.00000000000000000000 0.00000000000000000000 L 1.00000000000000000000 0.00000000000000000000 L 0.00000000000000006123 1.00000000000000000000 Z " style="fill: #000; stroke: none;stroke-miterlimit: 10;"/></g><g><path d="M -1.00000000000000000000 0.00000000000000012246 L 0.00000000000000000000 0.00000000000000000000 L 0.00000000000000006123 1.00000000000000000000 L -1.00000000000000000000 0.00000000000000012246 Z " style="fill: #000; stroke: none;stroke-miterlimit: 10;"/></g><g><path d="M -0.00000000000000018370 -1.00000000000000000000 L 0.00000000000000000000 0.00000000000000000000 L -1.00000000000000000000 0.00000000000000012246 L -0.00000000000000018370 -1.00000000000000000000 Z " style="fill: #000; stroke: none;stroke-miterlimit: 10;"/></g><g><path d="M 1.00000000000000000000 0.00000000000000000000 L 0.00000000000000000000 0.00000000000000000000 L -0.00000000000000018370 -1.00000000000000000000 L 1.00000000000000000000 0.00000000000000000000 Z " style="fill: #000; stroke: none;stroke-miterlimit: 10;"/></g><g><path d="M -0.00000000000000018370 -1.00000000000000000000 L 0.00000000000000000000 0.00000000000000000000 L -1.00000000000000000000 0.00000000000000012246 L -0.00000000000000018370 -1.00000000000000000000 Z " style="fill: #214068; stroke: none;stroke-miterlimit: 10;"/></g><g><path d="M 1.00000000000000000000 0.00000000000000000000 L 0.00000000000000000000 0.00000000000000000000 L -0.00000000000000018370 -1.00000000000000000000 L 1.00000000000000000000 0.00000000000000000000 Z " style="fill: #214068; stroke: none;stroke-miterlimit: 10;"/></g><g><path d="M 0.00000000000000006123 1.00000000000000000000 L 0.00000000000000000000 0.00000000000000000000 L 1.00000000000000000000 0.00000000000000000000 L 0.00000000000000006123 1.00000000000000000000 Z " style="fill: #214068; stroke: none;stroke-miterlimit: 10;"/></g><g><path d="M -1.00000000000000000000 0.00000000000000012246 L 0.00000000000000000000 0.00000000000000000000 L 0.00000000000000006123 1.00000000000000000000 L -1.00000000000000000000 0.00000000000000012246 Z " style="fill: #09294c; stroke: none;stroke-miterlimit: 10;"/></g><g><line x1="0" y1="0" x2="1" y2="0" style="fill: none; stroke: rgba(255,255,255,0.2);stroke-width: 0.01;stroke-miterlimit: 10;"/></g><g><line x1="0" y1="0" x2="6.123233995736766e-17" y2="1" style="fill: none; stroke: rgba(255,255,255,0.2);stroke-width: 0.01;stroke-miterlimit: 10;"/></g><g><line x1="0" y1="0" x2="-1" y2="1.2246467991473532e-16" style="fill: none; stroke: rgba(255,255,255,0.2);stroke-width: 0.01;stroke-miterlimit: 10;"/></g><g><line x1="0" y1="0" x2="-1.8369701987210297e-16" y2="-1" style="fill: none; stroke: rgba(255,255,255,0.2);stroke-width: 0.01;stroke-miterlimit: 10;"/></g><g><circle r="0.04" style="fill: rgba(255,255,255,0.2); stroke: rgba(255,255,255,0.2);stroke-width: 0.02;stroke-miterlimit: 10;"/></g></g></g></g></g><g transform="translate(0.00000000000000000000,110.00000000000000000000)"><g><g transform="translate(30.00000000000000000000,0.00000000000000000000)"><g transform="scale(30.00000000000000000000)"><g><path d="M 0.00000000000000006123 1.00000000000000000000 L 0.00000000000000000000 0.00000000000000000000 L 1.00000000000000000000 0.00000000000000000000 L 0.00000000000000006123 1.00000000000000000000 Z " style="fill: #000; stroke: none;stroke-miterlimit: 10;"/></g><g><path d="M -1.00000000000000000000 0.00000000000000012246 L 0.00000000000000000000 0.00000000000000000000 L 0.00000000000000006123 1.00000000000000000000 L -1.00000000000000000000 0.00000000000000012246 Z " style="fill: #000; stroke: none;stroke-miterlimit: 10;"/></g><g><path d="M -0.00000000000000018370 -1.00000000000000000000 L 0.00000000000000000000 0.00000000000000000000 L -1.00000000000000000000 0.00000000000000012246 L -0.00000000000000018370 -1.00000000000000000000 Z " style="fill: #000; stroke: none;stroke-miterlimit: 10;"/></g><g><path d="M 1.00000000000000000000 0.00000000000000000000 L 0.00000000000000000000 0.00000000000000000000 L -0.00000000000000018370 -1.00000000000000000000 L 1.00000000000000000000 0.00000000000000000000 Z " style="fill: #000; stroke: none;stroke-miterlimit: 10;"/></g><g><path d="M 0.00000000000000006123 1.00000000000000000000 L 0.00000000000000000000 0.00000000000000000000 L 1.00000000000000000000 0.00000000000000000000 L 0.00000000000000006123 1.00000000000000000000 Z " style="fill: #214068; stroke: none;stroke-miterlimit: 10;"/></g><g><path d="M -0.00000000000000018370 -1.00000000000000000000 L 0.00000000000000000000 0.00000000000000000000 L -1.00000000000000000000 0.00000000000000012246 L -0.00000000000000018370 -1.00000000000000000000 Z " style="fill: #214068; stroke: none;stroke-miterlimit: 10;"/></g><g><path d="M -1.00000000000000000000 0.00000000000000012246 L 0.00000000000000000000 0.00000000000000000000 L 0.00000000000000006123 1.00000000000000000000 L -1.00000000000000000000 0.00000000000000012246 Z " style="fill: #224935; stroke: none;stroke-miterlimit: 10;"/></g><g><path d="M 1.00000000000000000000 0.00000000000000000000 L 0.00000000000000000000 0.00000000000000000000 L -0.00000000000000018370 -1.00000000000000000000 L 1.00000000000000000000 0.00000000000000000000 Z " style="fill: #224935; stroke: none;stroke-miterlimit: 10;"/></g><g><line x1="0" y1="0" x2="1" y2="0" style="fill: none; stroke: rgba(255,255,255,0.2);stroke-width: 0.01;stroke-miterlimit: 10;"/></g><g><line x1="0" y1="0" x2="6.123233995736766e-17" y2="1" style="fill: none; stroke: rgba(255,255,255,0.2);stroke-width: 0.01;stroke-miterlimit: 10;"/></g><g><line x1="0" y1="0" x2="-1" y2="1.2246467991473532e-16" style="fill: none; stroke: rgba(255,255,255,0.2);stroke-width: 0.01;stroke-miterlimit: 10;"/></g><g><line x1="0" y1="0" x2="-1.8369701987210297e-16" y2="-1" style="fill: none; stroke: rgba(255,255,255,0.2);stroke-width: 0.01;stroke-miterlimit: 10;"/></g><g><circle r="0.04" style="fill: rgba(255,255,255,0.2); stroke: rgba(255,255,255,0.2);stroke-width: 0.02;stroke-miterlimit: 10;"/></g></g></g><g transform="translate(70.50000000000000000000,0.00000000000000000000)"><path d="M 0.00000000000000003062 0.50000000000000000000 L 13.00000000000000000000 0.50000000000000000000 L 13.00000000000000000000 3.50000000000000000000 L 20.00000000000000000000 0.00000000000000000000 L 13.00000000000000000000 -3.50000000000000000000 L 13.00000000000000000000 -0.50000000000000000000 L -0.00000000000000003062 -0.50000000000000000000 L 0.00000000000000003062 0.50000000000000000000 Z " style="fill: #ccc; stroke: #ccc;stroke-miterlimit: 10;"/></g><g transform="translate(131.61803398874991444245,0.00000000000000000000)"><g transform="scale(30.00000000000000000000)"><g><path d="M 0.00000000000000006123 1.00000000000000000000 L 0.00000000000000000000 0.00000000000000000000 L 1.00000000000000000000 0.00000000000000000000 L 0.00000000000000006123 1.00000000000000000000 Z " style="fill: #000; stroke: none;stroke-miterlimit: 10;"/></g><g><path d="M -1.00000000000000000000 0.00000000000000012246 L 0.00000000000000000000 0.00000000000000000000 L 0.00000000000000006123 1.00000000000000000000 L -1.00000000000000000000 0.00000000000000012246 Z " style="fill: #000; stroke: none;stroke-miterlimit: 10;"/></g><g><path d="M -0.00000000000000018370 -1.00000000000000000000 L 0.00000000000000000000 0.00000000000000000000 L -1.00000000000000000000 0.00000000000000012246 L -0.00000000000000018370 -1.00000000000000000000 Z " style="fill: #000; stroke: none;stroke-miterlimit: 10;"/></g><g><path d="M 1.00000000000000000000 0.00000000000000000000 L 0.00000000000000000000 0.00000000000000000000 L -0.00000000000000018370 -1.00000000000000000000 L 1.00000000000000000000 0.00000000000000000000 Z " style="fill: #000; stroke: none;stroke-miterlimit: 10;"/></g><g><path d="M -0.00000000000000018370 -1.00000000000000000000 L 0.00000000000000000000 0.00000000000000000000 L -1.00000000000000000000 0.00000000000000012246 L -0.00000000000000018370 -1.00000000000000000000 Z " style="fill: #214068; stroke: none;stroke-miterlimit: 10;"/></g><g><path d="M 1.00000000000000000000 0.00000000000000000000 L 0.00000000000000000000 0.00000000000000000000 L -0.00000000000000018370 -1.00000000000000000000 L 1.00000000000000000000 0.00000000000000000000 Z " style="fill: #214068; stroke: none;stroke-miterlimit: 10;"/></g><g><path d="M -1.00000000000000000000 0.00000000000000012246 L 0.00000000000000000000 0.00000000000000000000 L 0.00000000000000006123 1.00000000000000000000 L -1.00000000000000000000 0.00000000000000012246 Z " style="fill: #214068; stroke: none;stroke-miterlimit: 10;"/></g><g><path d="M 0.00000000000000006123 1.00000000000000000000 L 0.00000000000000000000 0.00000000000000000000 L 1.00000000000000000000 0.00000000000000000000 L 0.00000000000000006123 1.00000000000000000000 Z " style="fill: #214068; stroke: none;stroke-miterlimit: 10;"/></g><g><line x1="0" y1="0" x2="1" y2="0" style="fill: none; stroke: rgba(255,255,255,0.2);stroke-width: 0.01;stroke-miterlimit: 10;"/></g><g><line x1="0" y1="0" x2="6.123233995736766e-17" y2="1" style="fill: none; stroke: rgba(255,255,255,0.2);stroke-width: 0.01;stroke-miterlimit: 10;"/></g><g><line x1="0" y1="0" x2="-1" y2="1.2246467991473532e-16" style="fill: none; stroke: rgba(255,255,255,0.2);stroke-width: 0.01;stroke-miterlimit: 10;"/></g><g><line x1="0" y1="0" x2="-1.8369701987210297e-16" y2="-1" style="fill: none; stroke: rgba(255,255,255,0.2);stroke-width: 0.01;stroke-miterlimit: 10;"/></g><g><circle r="0.04" style="fill: rgba(255,255,255,0.2); stroke: rgba(255,255,255,0.2);stroke-width: 0.02;stroke-miterlimit: 10;"/></g></g></g></g></g><g transform="translate(0.00000000000000000000,190.00000000000000000000)"><g><g transform="translate(30.00000000000000000000,0.00000000000000000000)"><g transform="scale(30.00000000000000000000)"><g><path d="M 0.00000000000000006123 1.00000000000000000000 L 0.00000000000000000000 0.00000000000000000000 L 1.00000000000000000000 0.00000000000000000000 L 0.00000000000000006123 1.00000000000000000000 Z " style="fill: #000; stroke: none;stroke-miterlimit: 10;"/></g><g><path d="M -1.00000000000000000000 0.00000000000000012246 L 0.00000000000000000000 0.00000000000000000000 L 0.00000000000000006123 1.00000000000000000000 L -1.00000000000000000000 0.00000000000000012246 Z " style="fill: #000; stroke: none;stroke-miterlimit: 10;"/></g><g><path d="M -0.00000000000000018370 -1.00000000000000000000 L 0.00000000000000000000 0.00000000000000000000 L -1.00000000000000000000 0.00000000000000012246 L -0.00000000000000018370 -1.00000000000000000000 Z " style="fill: #000; stroke: none;stroke-miterlimit: 10;"/></g><g><path d="M 1.00000000000000000000 0.00000000000000000000 L 0.00000000000000000000 0.00000000000000000000 L -0.00000000000000018370 -1.00000000000000000000 L 1.00000000000000000000 0.00000000000000000000 Z " style="fill: #000; stroke: none;stroke-miterlimit: 10;"/></g><g><path d="M 0.00000000000000006123 1.00000000000000000000 L 0.00000000000000000000 0.00000000000000000000 L 1.00000000000000000000 0.00000000000000000000 L 0.00000000000000006123 1.00000000000000000000 Z " style="fill: #214068; stroke: none;stroke-miterlimit: 10;"/></g><g><path d="M -1.00000000000000000000 0.00000000000000012246 L 0.00000000000000000000 0.00000000000000000000 L 0.00000000000000006123 1.00000000000000000000 L -1.00000000000000000000 0.00000000000000012246 Z " style="fill: #09294c; stroke: none;stroke-miterlimit: 10;"/></g><g><path d="M -0.00000000000000018370 -1.00000000000000000000 L 0.00000000000000000000 0.00000000000000000000 L -1.00000000000000000000 0.00000000000000012246 L -0.00000000000000018370 -1.00000000000000000000 Z " style="fill: #224935; stroke: none;stroke-miterlimit: 10;"/></g><g><path d="M 1.00000000000000000000 0.00000000000000000000 L 0.00000000000000000000 0.00000000000000000000 L -0.00000000000000018370 -1.00000000000000000000 L 1.00000000000000000000 0.00000000000000000000 Z " style="fill: #0d301f; stroke: none;stroke-miterlimit: 10;"/></g><g><line x1="0" y1="0" x2="1" y2="0" style="fill: none; stroke: rgba(255,255,255,0.2);stroke-width: 0.01;stroke-miterlimit: 10;"/></g><g><line x1="0" y1="0" x2="6.123233995736766e-17" y2="1" style="fill: none; stroke: rgba(255,255,255,0.2);stroke-width: 0.01;stroke-miterlimit: 10;"/></g><g><line x1="0" y1="0" x2="-1" y2="1.2246467991473532e-16" style="fill: none; stroke: rgba(255,255,255,0.2);stroke-width: 0.01;stroke-miterlimit: 10;"/></g><g><line x1="0" y1="0" x2="-1.8369701987210297e-16" y2="-1" style="fill: none; stroke: rgba(255,255,255,0.2);stroke-width: 0.01;stroke-miterlimit: 10;"/></g><g><circle r="0.04" style="fill: rgba(255,255,255,0.2); stroke: rgba(255,255,255,0.2);stroke-width: 0.02;stroke-miterlimit: 10;"/></g></g></g><g transform="translate(70.50000000000000000000,0.00000000000000000000)"><path d="M 0.00000000000000003062 0.50000000000000000000 L 13.00000000000000000000 0.50000000000000000000 L 13.00000000000000000000 3.50000000000000000000 L 20.00000000000000000000 0.00000000000000000000 L 13.00000000000000000000 -3.50000000000000000000 L 13.00000000000000000000 -0.50000000000000000000 L -0.00000000000000003062 -0.50000000000000000000 L 0.00000000000000003062 0.50000000000000000000 Z " style="fill: #ccc; stroke: #ccc;stroke-miterlimit: 10;"/></g><g transform="translate(131.61803398874991444245,0.00000000000000000000)"><g transform="scale(30.00000000000000000000)"><g><path d="M 0.00000000000000006123 1.00000000000000000000 L 0.00000000000000000000 0.00000000000000000000 L 1.00000000000000000000 0.00000000000000000000 L 0.00000000000000006123 1.00000000000000000000 Z " style="fill: #000; stroke: none;stroke-miterlimit: 10;"/></g><g><path d="M -1.00000000000000000000 0.00000000000000012246 L 0.00000000000000000000 0.00000000000000000000 L 0.00000000000000006123 1.00000000000000000000 L -1.00000000000000000000 0.00000000000000012246 Z " style="fill: #000; stroke: none;stroke-miterlimit: 10;"/></g><g><path d="M -0.00000000000000018370 -1.00000000000000000000 L 0.00000000000000000000 0.00000000000000000000 L -1.00000000000000000000 0.00000000000000012246 L -0.00000000000000018370 -1.00000000000000000000 Z " style="fill: #000; stroke: none;stroke-miterlimit: 10;"/></g><g><path d="M 1.00000000000000000000 0.00000000000000000000 L 0.00000000000000000000 0.00000000000000000000 L -0.00000000000000018370 -1.00000000000000000000 L 1.00000000000000000000 0.00000000000000000000 Z " style="fill: #000; stroke: none;stroke-miterlimit: 10;"/></g><g><path d="M -0.00000000000000018370 -1.00000000000000000000 L 0.00000000000000000000 0.00000000000000000000 L -1.00000000000000000000 0.00000000000000012246 L -0.00000000000000018370 -1.00000000000000000000 Z " style="fill: #214068; stroke: none;stroke-miterlimit: 10;"/></g><g><path d="M -1.00000000000000000000 0.00000000000000012246 L 0.00000000000000000000 0.00000000000000000000 L 0.00000000000000006123 1.00000000000000000000 L -1.00000000000000000000 0.00000000000000012246 Z " style="fill: #214068; stroke: none;stroke-miterlimit: 10;"/></g><g><path d="M 1.00000000000000000000 0.00000000000000000000 L 0.00000000000000000000 0.00000000000000000000 L -0.00000000000000018370 -1.00000000000000000000 L 1.00000000000000000000 0.00000000000000000000 Z " style="fill: #09294c; stroke: none;stroke-miterlimit: 10;"/></g><g><path d="M 0.00000000000000006123 1.00000000000000000000 L 0.00000000000000000000 0.00000000000000000000 L 1.00000000000000000000 0.00000000000000000000 L 0.00000000000000006123 1.00000000000000000000 Z " style="fill: #09294c; stroke: none;stroke-miterlimit: 10;"/></g><g><line x1="0" y1="0" x2="1" y2="0" style="fill: none; stroke: rgba(255,255,255,0.2);stroke-width: 0.01;stroke-miterlimit: 10;"/></g><g><line x1="0" y1="0" x2="6.123233995736766e-17" y2="1" style="fill: none; stroke: rgba(255,255,255,0.2);stroke-width: 0.01;stroke-miterlimit: 10;"/></g><g><line x1="0" y1="0" x2="-1" y2="1.2246467991473532e-16" style="fill: none; stroke: rgba(255,255,255,0.2);stroke-width: 0.01;stroke-miterlimit: 10;"/></g><g><line x1="0" y1="0" x2="-1.8369701987210297e-16" y2="-1" style="fill: none; stroke: rgba(255,255,255,0.2);stroke-width: 0.01;stroke-miterlimit: 10;"/></g><g><circle r="0.04" style="fill: rgba(255,255,255,0.2); stroke: rgba(255,255,255,0.2);stroke-width: 0.02;stroke-miterlimit: 10;"/></g></g></g></g></g></g></g></g></g></g></g></svg>

<svg xmlns="http://www.w3.org/2000/svg" width="202" height="260" aria-hidden="true" style="pointer-events:none;position:absolute;left:0;top:0;transform-origin:left top;z-index:20"><rect width="192" height="250" rx="0" ry="0" style="fill:#333"/><path d="M0 1V0h1zm-1-1h1v1zm1-1v1h-1zm1 1H0v-1z" style="fill:#000" transform="matrix(30 0 0 30 45 45)"/><path d="M0 1V0h1zm0-2v1h-1z" style="fill:#214068" transform="matrix(30 0 0 30 45 45)"/><path d="M-1 0h1v1z" style="fill:#09294c" transform="matrix(30 0 0 30 45 45)"/><path d="M0 0h1M0 0v1m0-1h-1m1 0v-1" style="fill:none;stroke:rgba(255,255,255,.2);stroke-width:.01" transform="matrix(30 0 0 30 45 45)"/><circle r=".04" style="fill:rgba(255,255,255,.2);stroke:rgba(255,255,255,.2);stroke-width:.02" transform="matrix(30 0 0 30 45 45)"/><path d="M0 .5h13v3L20 0l-7-3.5v3H0z" style="fill:#ccc;stroke:#ccc" transform="translate(85.5 45)"/><path d="M0 1V0h1zm-1-1h1v1zm1-1v1h-1zm1 1H0v-1z" style="fill:#000" transform="matrix(30 0 0 30 146.618 45)"/><path d="M0-1v1h-1zm1 1H0v-1zM0 1V0h1z" style="fill:#214068" transform="matrix(30 0 0 30 146.618 45)"/><path d="M-1 0h1v1z" style="fill:#09294c" transform="matrix(30 0 0 30 146.618 45)"/><path d="M0 0h1M0 0v1m0-1h-1m1 0v-1" style="fill:none;stroke:rgba(255,255,255,.2);stroke-width:.01" transform="matrix(30 0 0 30 146.618 45)"/><circle r=".04" style="fill:rgba(255,255,255,.2);stroke:rgba(255,255,255,.2);stroke-width:.02" transform="matrix(30 0 0 30 146.618 45)"/><path d="M0 1V0h1zm-1-1h1v1zm1-1v1h-1zm1 1H0v-1z" style="fill:#000" transform="matrix(30 0 0 30 45 125)"/><path d="M0 1V0h1zm0-2v1h-1z" style="fill:#214068" transform="matrix(30 0 0 30 45 125)"/><path d="M-1 0h1v1zm2 0H0v-1z" style="fill:#224935" transform="matrix(30 0 0 30 45 125)"/><path d="M0 0h1M0 0v1m0-1h-1m1 0v-1" style="fill:none;stroke:rgba(255,255,255,.2);stroke-width:.01" transform="matrix(30 0 0 30 45 125)"/><circle r=".04" style="fill:rgba(255,255,255,.2);stroke:rgba(255,255,255,.2);stroke-width:.02" transform="matrix(30 0 0 30 45 125)"/><path d="M0 .5h13v3L20 0l-7-3.5v3H0z" style="fill:#ccc;stroke:#ccc" transform="translate(85.5 125)"/><path d="M0 1V0h1zm-1-1h1v1zm1-1v1h-1zm1 1H0v-1z" style="fill:#000" transform="matrix(30 0 0 30 146.618 125)"/><path d="M0-1v1h-1zm1 1H0v-1zm-2 0h1v1zm1 1V0h1z" style="fill:#214068" transform="matrix(30 0 0 30 146.618 125)"/><path d="M0 0h1M0 0v1m0-1h-1m1 0v-1" style="fill:none;stroke:rgba(255,255,255,.2);stroke-width:.01" transform="matrix(30 0 0 30 146.618 125)"/><circle r=".04" style="fill:rgba(255,255,255,.2);stroke:rgba(255,255,255,.2);stroke-width:.02" transform="matrix(30 0 0 30 146.618 125)"/><path d="M0 1V0h1zm-1-1h1v1zm1-1v1h-1zm1 1H0v-1z" style="fill:#000" transform="matrix(30 0 0 30 45 205)"/><path d="M0 1V0h1z" style="fill:#214068" transform="matrix(30 0 0 30 45 205)"/><path d="M-1 0h1v1z" style="fill:#09294c" transform="matrix(30 0 0 30 45 205)"/><path d="M0-1v1h-1z" style="fill:#224935" transform="matrix(30 0 0 30 45 205)"/><path d="M1 0H0v-1z" style="fill:#0d301f" transform="matrix(30 0 0 30 45 205)"/><path d="M0 0h1M0 0v1m0-1h-1m1 0v-1" style="fill:none;stroke:rgba(255,255,255,.2);stroke-width:.01" transform="matrix(30 0 0 30 45 205)"/><circle r=".04" style="fill:rgba(255,255,255,.2);stroke:rgba(255,255,255,.2);stroke-width:.02" transform="matrix(30 0 0 30 45 205)"/><path d="M0 .5h13v3L20 0l-7-3.5v3H0z" style="fill:#ccc;stroke:#ccc" transform="translate(85.5 205)"/><path d="M0 1V0h1zm-1-1h1v1zm1-1v1h-1zm1 1H0v-1z" style="fill:#000" transform="matrix(30 0 0 30 146.618 205)"/><path d="M0-1v1h-1zm-1 1h1v1z" style="fill:#214068" transform="matrix(30 0 0 30 146.618 205)"/><path d="M1 0H0v-1zM0 1V0h1z" style="fill:#09294c" transform="matrix(30 0 0 30 146.618 205)"/><path d="M0 0h1M0 0v1m0-1h-1m1 0v-1" style="fill:none;stroke:rgba(255,255,255,.2);stroke-width:.01" transform="matrix(30 0 0 30 146.618 205)"/><circle r=".04" style="fill:rgba(255,255,255,.2);stroke:rgba(255,255,255,.2);stroke-width:.02" transform="matrix(30 0 0 30 146.618 205)"/></svg>
